assets/images/forms.svg

<svg width="465" height="310" viewBox="0 0 465 310" fill="none" xmlns="http://www.w3.org/2000/svg">
<path d="M465 0H0V310H465V0Z" fill="#28A197"/>
<path d="M54 56C54 53.7909 56.0691 52 58.6214 52H406.379C408.931 52 411 53.7909 411 56V75H54V56Z" fill="#F3F2F1"/>
<path d="M63.5 67C65.433 67 67 65.433 67 63.5C67 61.567 65.433 60 63.5 60C61.567 60 60 61.567 60 63.5C60 65.433 61.567 67 63.5 67Z" fill="#D4351C"/>
<path d="M75.5 67C77.433 67 79 65.433 79 63.5C79 61.567 77.433 60 75.5 60C73.567 60 72 61.567 72 63.5C72 65.433 73.567 67 75.5 67Z" fill="#FFDD00"/>
<path d="M87.5 67C89.433 67 91 65.433 91 63.5C91 61.567 89.433 60 87.5 60C85.567 60 84 61.567 84 63.5C84 65.433 85.567 67 87.5 67Z" fill="#00703C"/>
<rect x="54" y="95" width="357" height="4" fill="#1D70B8"/>
<rect x="54" y="75" width="357" height="20" fill="#0B0C0C"/>
<path d="M54 99H411V254C411 256.209 409.209 258 407 258H58C55.7909 258 54 256.209 54 254V99Z" fill="white"/>
<path d="M153 124H79V136H153V124Z" fill="#0B0C0C"/>
<path d="M190 152H101V157H190V152Z" fill="#B1B4B6"/>
<path d="M155 174H101V179H155V174Z" fill="#B1B4B6"/>
<path d="M190 196H101V201H190V196Z" fill="#B1B4B6"/>
<path d="M104 114H79V119H104V114Z" fill="#B1B4B6"/>
<rect x="79" y="223" width="49" height="17" rx="2" fill="#1F8823"/>
<circle cx="86.5" cy="154.5" r="6.5" stroke="black" stroke-width="2"/>
<circle cx="86.5" cy="176.5" r="6.5" stroke="black" stroke-width="2"/>
<circle cx="86.5" cy="198.5" r="6.5" stroke="black" stroke-width="2"/>
<circle cx="86.5" cy="154.5" r="8.5" stroke="#FFDD00" stroke-width="2"/>
<circle cx="86.5" cy="154.5" r="3.5" fill="#0B0C0C"/>
</svg>

<svg xmlns="http://www.w3.org/2000/svg" width="465" height="310" fill="none"><path fill="#28A197" d="M465 0H0v310h465V0Z"/><path fill="#F3F2F1" d="M54 56c0-2.21 2.07-4 4.621-4H406.38c2.552 0 4.621 1.79 4.621 4v19H54V56Z"/><path fill="#D4351C" d="M63.5 67a3.5 3.5 0 1 0 0-7 3.5 3.5 0 0 0 0 7Z"/><path fill="#FD0" d="M75.5 67a3.5 3.5 0 1 0 0-7 3.5 3.5 0 0 0 0 7Z"/><path fill="#00703C" d="M87.5 67a3.5 3.5 0 1 0 0-7 3.5 3.5 0 0 0 0 7Z"/><path fill="#1D70B8" d="M54 95h357v4H54z"/><path fill="#0B0C0C" d="M54 75h357v20H54z"/><path fill="#fff" d="M54 99h357v155a4 4 0 0 1-4 4H58a4 4 0 0 1-4-4V99Z"/><path fill="#0B0C0C" d="M153 124H79v12h74v-12Z"/><path fill="#B1B4B6" d="M190 152h-89v5h89v-5ZM155 174h-54v5h54v-5ZM190 196h-89v5h89v-5ZM104 114H79v5h25v-5Z"/><rect width="49" height="17" x="79" y="223" fill="#1F8823" rx="2"/><circle cx="86.5" cy="154.5" r="6.5" stroke="#000" stroke-width="2"/><circle cx="86.5" cy="176.5" r="6.5" stroke="#000" stroke-width="2"/><circle cx="86.5" cy="198.5" r="6.5" stroke="#000" stroke-width="2"/><circle cx="86.5" cy="154.5" r="8.5" stroke="#FD0" stroke-width="2"/><circle cx="86.5" cy="154.5" r="3.5" fill="#0B0C0C"/></svg>
